packages/symbols/svgs/solid/sort-alt-solid.svg

<svg width="16" height="16" viewBox="0 0 16 16" fill="none" xmlns="http://www.w3.org/2000/svg">
<path fill-rule="evenodd" clip-rule="evenodd" d="M2.40002 5.20001L7.40002 1.20001C7.70002 0.900006 8.30002 0.900006 8.60003 1.20001L13.6 5.20001L12.4 6.80001L8.00002 3.30001L3.60002 6.80001L2.40002 5.20001ZM3.60002 9.2L8.00002 12.7L12.4 9.2L13.6 10.8L8.60003 14.8C8.40002 14.9 8.20002 15 8.00002 15C7.80002 15 7.60002 14.9 7.40002 14.8L2.40002 10.8L3.60002 9.2Z" fill="black"/>
</svg>

<svg width="16" height="16" viewBox="0 0 16 16" xmlns="http://www.w3.org/2000/svg"><path fill-rule="evenodd" clip-rule="evenodd" d="m2.4 5.2 5-4c.3-.3.9-.3 1.2 0l5 4-1.2 1.6L8 3.3 3.6 6.8 2.4 5.2Zm1.2 4L8 12.7l4.4-3.5 1.2 1.6-5 4c-.2.1-.4.2-.6.2-.2 0-.4-.1-.6-.2l-5-4 1.2-1.6Z"/></svg>
